src/actions/symbolic/parking-sign-symbolic.svg

<svg width="16" height="16" version="1.1" viewBox="0 0 16 16" xmlns="http://www.w3.org/2000/svg">
 <path d="m3 1c-1.108 0-2 0.892-2 2v10c0 1.108 0.892 2 2 2h10c1.108 0 2-0.892 2-2v-10c0-1.108-0.892-2-2-2h-10zm0 1h10c0.554 0 1 0.446 1 1v10c0 0.554-0.446 1-1 1h-10c-0.554 0-1-0.446-1-1v-10c0-0.554 0.446-1 1-1zm2 1v1 5 1 3h1v-3h2.5c1.939 0 3.5-1.561 3.5-3.5s-1.561-3.5-3.5-3.5h-3.5zm1 1h2.5c1.385 0 2.5 1.115 2.5 2.5s-1.115 2.5-2.5 2.5h-2.5v-5z" fill="#363636" stroke-linecap="round" stroke-linejoin="round" stroke-width="2" style="paint-order:stroke fill markers"/>
</svg>

<svg xmlns="http://www.w3.org/2000/svg" width="16" height="16">
    <path fill="#050505" fill-opacity=".7" d="M3 1c-1.108 0-2 .892-2 2v10c0 1.108.892 2 2 2h10c1.108 0 2-.892 2-2V3c0-1.108-.892-2-2-2H3zm0 1h10c.554 0 1 .446 1 1v10c0 .554-.446 1-1 1H3c-.554 0-1-.446-1-1V3c0-.554.446-1 1-1zm2 1v10h1v-3h2.5c1.939 0 3.5-1.561 3.5-3.5S10.439 3 8.5 3H5zm1 1h2.5C9.885 4 11 5.115 11 6.5S9.885 9 8.5 9H6V4z" style="paint-order:stroke fill markers"/>
</svg>
